Origami/22x22/apps/jango.svg

<svg width="22" height="22" version="1" xmlns="http://www.w3.org/2000/svg">
 <rect transform="matrix(0,-1,-1,0,0,0)" x="-21" y="-21" width="20" height="20" rx="1" ry="1" style="fill:#19416f"/>
 <path d="m11.5 3.5a1.5 1.5 0 0 0 -1.5 1.5 1.5 1.5 0 0 0 1.5 1.5 1.5 1.5 0 0 0 1.5 -1.5 1.5 1.5 0 0 0 -1.5 -1.5zm-1.5 4c-0.554 0-1 0.446-1 1s0.446 1 1 1h1v6.111328c0 0.485994-0.0018 0.84326-0.02734 1.111328a1.5 1.5 0 0 0 -1.47266 -1.222656 1.5 1.5 0 0 0 -1.5 1.5 1.5 1.5 0 0 0 1.5 1.5 1.5 1.5 0 0 0 0.105469 -0.0039c2.410375-7.77e-4 3.394531-0.043596 3.394531-2.884772v-8.111328h-2-1z" style="opacity:.2"/>
 <path d="m2 1c-0.554 0-1 0.446-1 1v0.5c0-0.554 0.446-1 1-1h18c0.554 0 1 0.446 1 1v-0.5c0-0.554-0.446-1-1-1h-18z" style="fill:#ffffff;opacity:.1"/>
 <path d="m2 21.5c-0.554 0-1-0.446-1-1v-0.5c0 0.554 0.446 1 1 1h18c0.554 0 1-0.446 1-1v0.5c0 0.554-0.446 1-1 1h-18z" style="opacity:.2"/>
 <path d="M 11.5,3 A 1.5,1.5 0 0 0 10,4.5 1.5,1.5 0 0 0 11.5,6 1.5,1.5 0 0 0 13,4.5 1.5,1.5 0 0 0 11.5,3 Z M 10,7 C 9.446,7 9,7.446 9,8 9,8.554 9.446,9 10,9 l 1,0 0,6.111328 c 0,0.485994 -0.0018,0.84326 -0.02734,1.111328 A 1.5,1.5 0 0 0 9.5,15 1.5,1.5 0 0 0 8,16.5 1.5,1.5 0 0 0 9.5,18 1.5,1.5 0 0 0 9.6054688,17.996094 C 12.015844,17.995323 13,17.952504 13,15.111328 L 13,7 11,7 10,7 Z" style="fill:#ffffff"/>
</svg>

<svg xmlns="http://www.w3.org/2000/svg" width="22" height="22" version="1">
 <rect style="fill:#19416f" width="20" height="20" x="-21" y="-21" rx="1" ry="1" transform="matrix(0,-1,-1,0,0,0)"/>
 <path style="opacity:0.2" d="M 11.5,3.5 A 1.5,1.5 0 0 0 10,5 1.5,1.5 0 0 0 11.5,6.5 1.5,1.5 0 0 0 13,5 1.5,1.5 0 0 0 11.5,3.5 Z m -1.5,4 c -0.554,0 -1,0.446 -1,1 0,0.554 0.446,1 1,1 l 1,0 0,6.111328 c 0,0.485994 -0.0018,0.84326 -0.02734,1.111328 A 1.5,1.5 0 0 0 9.5,15.5 1.5,1.5 0 0 0 8,17 1.5,1.5 0 0 0 9.5,18.5 1.5,1.5 0 0 0 9.605469,18.4961 C 12.015844,18.495323 13,18.452504 13,15.611328 L 13,7.5 l -2,0 -1,0 z"/>
 <path style="opacity:0.1;fill:#ffffff" d="M 2,1 C 1.446,1 1,1.446 1,2 l 0,0.5 c 0,-0.554 0.446,-1 1,-1 l 18,0 c 0.554,0 1,0.446 1,1 L 21,2 C 21,1.446 20.554,1 20,1 L 2,1 Z"/>
 <path style="opacity:0.2" d="m 2,21.5 c -0.554,0 -1,-0.446 -1,-1 L 1,20 c 0,0.554 0.446,1 1,1 l 18,0 c 0.554,0 1,-0.446 1,-1 l 0,0.5 c 0,0.554 -0.446,1 -1,1 l -18,0 z"/>
 <path style="fill:#ffffff" d="M 11.5,3 A 1.5,1.5 0 0 0 10,4.5 1.5,1.5 0 0 0 11.5,6 1.5,1.5 0 0 0 13,4.5 1.5,1.5 0 0 0 11.5,3 Z M 10,7 C 9.446,7 9,7.446 9,8 9,8.554 9.446,9 10,9 l 1,0 0,6.111328 c 0,0.485994 -0.0018,0.84326 -0.02734,1.111328 A 1.5,1.5 0 0 0 9.5,15 1.5,1.5 0 0 0 8,16.5 1.5,1.5 0 0 0 9.5,18 1.5,1.5 0 0 0 9.6054688,17.996094 C 12.015844,17.995323 13,17.952504 13,15.111328 L 13,7 11,7 10,7 Z"/>
</svg>
